X:162
T:King William of Orange
T:King of the Fairies, Bonny Charlie
R:Hornpipe
O:Ireland
M:4/4
K:Em
P:A
B,2|\
E2EF G2GA|B2B2 GFGA|B2E2 EFGE|FGAF D2B,2|\
EDEF GFGA|BAGB d2dc|B2E2 GFED|E4 E2 ::
P:B
z2|\
efed B2B2|efed B2z2|fgaf d2g2|fgag d2ga|\
b2gb a2fa|g2eg f2df|
e2ef gfed|e2ef g2z2|efed B2B2|efed B2z2|\
dcBA cBAG|
FGAF D2EF|GFGA BABd|edef g2e2|dcBA BAGF|E4 E2||
